X:73
T:The French Gallerie O
H:is this not English. Words wanted
Z:Jack Campin - http://www.campin.me.uk
S:Blaikie MS (NLS MS.1578) p22, Blaikie #67
M:2/4
L:1/16
V:1 midi program 1 74
V:2 midi program 1 46 bass middle = d transpose -24
Q:1/4=86
K:Bb
[V:1] B2BB F2F2|BBBB F3`F|B4   c2de|dBcA B2c2|
[V:2] b4   a4  |g4   f4  |d4   e4  |f4   F4  |
%
[V:1] d2dd c2c2|B2BB A2F2|GAB2 c2A2|B4   F4 |]
[V:2] b4   a4  |g4   f4  |e4   f2f2|B4   b4 |]
W:Transcription (c) Jack Campin 2009, no mirroring or republication without permission

